packages/ui-solid/icons/code_16.svg

<svg width="16" height="16" viewBox="0 0 16 16" fill="none" xmlns="http://www.w3.org/2000/svg">
<path fill-rule="evenodd" clip-rule="evenodd" d="M9.21826 2.62687C9.70047 2.74743 9.99366 3.23607 9.8731 3.71828L7.8731 11.7183C7.75255 12.2005 7.26391 12.4937 6.78169 12.3731C6.29948 12.2526 6.00629 11.7639 6.12685 11.2817L8.12685 3.28172C8.2474 2.7995 8.73604 2.50632 9.21826 2.62687ZM5.13637 4.36361C5.48784 4.71508 5.48784 5.28493 5.13637 5.6364L3.27277 7.5L5.13637 9.36361C5.48784 9.71508 5.48784 10.2849 5.13637 10.6364C4.7849 10.9879 4.21505 10.9879 3.86358 10.6364L1.36358 8.1364C1.01211 7.78493 1.01211 7.21508 1.36358 6.86361L3.86358 4.36361C4.21505 4.01213 4.7849 4.01213 5.13637 4.36361ZM10.8636 4.36361C11.2151 4.01213 11.7849 4.01213 12.1364 4.36361L14.6364 6.86361C14.9878 7.21508 14.9878 7.78493 14.6364 8.1364L12.1364 10.6364C11.7849 10.9879 11.2151 10.9879 10.8636 10.6364C10.5121 10.2849 10.5121 9.71508 10.8636 9.36361L12.7272 7.5L10.8636 5.6364C10.5121 5.28493 10.5121 4.71508 10.8636 4.36361Z" fill="#007AFF"/>
</svg>

<svg xmlns="http://www.w3.org/2000/svg" width="16" height="16" fill="none"><path fill="currentColor" fill-rule="evenodd" d="M9.218 2.627a.9.9 0 0 1 .655 1.091l-2 8a.9.9 0 1 1-1.746-.436l2-8a.9.9 0 0 1 1.091-.655M5.136 4.364a.9.9 0 0 1 0 1.272L3.273 7.5l1.863 1.864a.9.9 0 0 1-1.272 1.272l-2.5-2.5a.9.9 0 0 1 0-1.272l2.5-2.5a.9.9 0 0 1 1.272 0m5.728 0a.9.9 0 0 1 1.272 0l2.5 2.5a.9.9 0 0 1 0 1.272l-2.5 2.5a.9.9 0 1 1-1.272-1.272L12.727 7.5l-1.863-1.864a.9.9 0 0 1 0-1.272" clip-rule="evenodd"/></svg>
